X:492
T:Harvest Home,The. RH.492
R:.hornpipe
S:Rev.R.Harrison’s MS,c1815,Cumbria
O:England
A:Temple Sowerby,Cumbria
Z:vmp.Simon Wilson. Review PJH, 2008.
M:C|
L:1/8
Q:1/2=90
K:D
FE|DAFA DAFA|defe dcBA|\
eAfA gAfA|edcB AGFE|!
DAFA DAFA|dAfe dcBA|\
eAfA gAfA|d2f2d2:|!
|:cd|eA A/A/A/A/ fA A/A/A/A/|\
gA A/A/A/A/ fA A/A/A/A/|\
eAfA gAfA|((3efd) ((3cdB) ((3ABG) ((3FGE)|!
Dd d/d/d/d/ cdec|Dd d/d/d/d/ cdef|\
gfge cABc|d2f2 d2:|
W:An unusual B music. PJH.

